svg/u1f6b3.svg

<svg viewBox="0 0 128 128" xmlns="http://www.w3.org/2000/svg">
  <g>
    <path d="M64,4C30.86,4,4,30.86,4,64s26.86,60,60,60s60-26.86,60-60S97.14,4,64,4z M114,64 c0.04,11.53-3.96,22.71-11.3,31.6L32.4,25.3C41.29,17.96,52.47,13.96,64,14C91.61,14,114,36.39,114,64z M14,64 c-0.04-11.53,3.96-22.71,11.3-31.6l70.3,70.3c-8.89,7.34-20.07,11.34-31.6,11.3C36.39,114,14,91.61,14,64z" fill="#CC3333"/>
    <circle cx="60.1" cy="63.1" r="56.1" fill="#F44336"/>
    <path d="M95.6,102.7c-8.89,7.34-20.07,11.34-31.6,11.3c-27.61,0-50-22.39-50-50 c-0.04-11.53,3.96-22.71,11.3-31.6l7.1-7.1C41.29,17.96,52.47,13.96,64,14c27.61,0,50,22.39,50,50c0.04,11.53-3.96,22.71-11.3,31.6 " fill="#FFFFFF"/>
    <path d="M95.6,102.7c-8.89,7.34-20.07,11.34-31.6,11.3c-27.61,0-50-22.39-50-50 c-0.04-11.53,3.96-22.71,11.3-31.6l7.1-7.1C41.29,17.96,52.47,13.96,64,14c27.61,0,50,22.39,50,50c0.04,11.53-3.96,22.71-11.3,31.6 " fill="#231F20"/>
    <path d="M96.4,103.2c-20.49,16.74-50.66,13.7-67.4-6.79C14.59,78.78,14.59,53.44,29,35.8l6.8-6.8 c8.53-7.03,19.25-10.85,30.3-10.8c26.45,0,47.9,21.44,47.9,47.9c0,11.04-3.82,21.75-10.8,30.3" fill="#414042"/>
    <path d="M101.3,63.1c-3.28-3.62-7.91-5.72-12.8-5.8L86,48.4c-0.23-0.81-0.96-1.38-1.8-1.4h-3.5 c-0.2,0-0.3-0.1-0.3-0.2s-0.1-0.2,0-0.4l1.5-3.3c0.1-0.1,0.2-0.2,0.3-0.2c0.61-0.12,1.18-0.36,1.7-0.7l4.9-3.3h0.1 c0.63-0.72,0.78-1.73,0.4-2.6c-0.37-0.88-1.25-1.43-2.2-1.4H73.4c-1.03-0.03-1.96,0.62-2.3,1.6c-0.31,0.98,0.01,2.05,0.8,2.7h0.2 l5.7,2.3c0.11,0.01,0.19,0.09,0.2,0.2V42l-2.1,4.7c-0.1,0.2-0.2,0.2-0.4,0.2H57.9c0,0-6.5-0.3-6.5-5.6s9.3-5.6,9.4-5.6 c1.06-0.01,1.91-0.88,1.9-1.94c0-0.02,0-0.04,0-0.06c0.03-1.02-0.76-1.87-1.78-1.9c-0.04,0-0.08,0-0.12,0l0,0 c-2.1,0.1-4.19,0.47-6.2,1.1c-5.7,2-6.9,5.6-6.9,8.3c-0.03,1.86,0.61,3.67,1.8,5.1l-4.8,11.1c-0.1,0.2-0.2,0.2-0.4,0.2h-0.1 c-1.43-0.4-2.91-0.6-4.4-0.6c-0.84,0.02-1.67,0.08-2.5,0.2c-7.94,1.17-14.05,7.61-14.8,15.6c-0.47,4.87,1.17,9.71,4.5,13.3 c3.29,3.6,7.93,5.66,12.8,5.7c0.6,0.02,1.2-0.02,1.8-0.1c9.54-1.02,16.45-9.58,15.43-19.13c-0.59-5.5-3.76-10.39-8.53-13.17 c-0.19-0.07-0.28-0.29-0.21-0.48c0-0.01,0.01-0.01,0.01-0.02l4.2-9.8c0.1-0.2,0.2-0.3,0.4-0.3h0.2c0.9,0.4,2.2,0.9,3.1,1.2 c0.1,0,0.2,0.1,0.2,0.3l7.3,25.2c0.13,0.32,0.3,0.62,0.5,0.9c0.1,0.1,0.2,0.2,0.3,0.2c0.06,0,0.1,0.04,0.1,0.1 c0.08,0.08,0.19,0.11,0.3,0.1h6.3c1.18,8.6,8.52,15,17.2,15c0.47,0.02,0.94-0.02,1.4-0.1c9.46-0.7,16.55-8.94,15.85-18.39 C105.37,69.52,103.84,65.93,101.3,63.1z M75.2,77.2c0.1-0.1,0.2-0.2,0.3-0.2h16.1c1.1-0.07,1.93-1.03,1.86-2.13 c-0.01-0.12-0.03-0.25-0.06-0.37l-3.7-12.8c-0.1-0.2,0-0.3,0.1-0.4s0.2-0.2,0.3-0.2h0.1c7.39,1.06,12.53,7.91,11.47,15.3 c-0.94,6.54-6.46,11.45-13.07,11.6h-0.3c-6.32-0.06-11.78-4.44-13.2-10.6C75.11,77.32,75.14,77.25,75.2,77.2z M88.8,73 c-0.1,0.1-0.2,0.2-0.3,0.2H75.4c-0.11,0-0.22-0.03-0.3-0.1c-0.07-0.12-0.1-0.26-0.1-0.4c0.83-5.52,4.96-9.96,10.4-11.2h0.1 c0.2,0,0.3,0.1,0.4,0.3L89,72.7C89,72.8,88.9,72.9,88.8,73z M84.2,57.8c-7.12,1.69-12.38,7.72-13.1,15 c-0.01,0.21-0.19,0.39-0.4,0.4c-0.53,0.02-1.03-0.25-1.3-0.7c-0.28-0.42-0.32-0.95-0.1-1.4l8.9-20c0.1-0.2,0.2-0.2,0.4-0.2h3.8 c0.2,0,0.3,0.1,0.4,0.3l1.8,6.1v0.3C84.4,57.7,84.3,57.8,84.2,57.8z M73.8,51.4l-7.6,17.1c-0.08,0.14-0.24,0.22-0.4,0.2 c-0.2,0-0.3-0.1-0.4-0.3l-5-17.1c-0.01-0.14,0.02-0.28,0.1-0.4c0.1-0.1,0.2-0.2,0.3-0.2h12.5c0.2,0,0.3,0.1,0.3,0.2 S73.9,51.2,73.8,51.4z M42.7,62l-5.3,12.4c-0.42,0.94,0,2.05,0.94,2.47c0.02,0.01,0.04,0.02,0.06,0.03c0.26,0.08,0.53,0.11,0.8,0.1 c0.78-0.01,1.49-0.48,1.8-1.2l5.3-12.4c0.1-0.2,0.2-0.3,0.4-0.3s0.2,0,0.2,0.1c6.3,3.97,8.19,12.31,4.21,18.61 c-2.47,3.92-6.78,6.29-11.41,6.29H39c-6.95-0.4-12.5-5.95-12.9-12.9c-0.22-3.7,1.13-7.33,3.7-10c2.56-2.68,6.1-4.2,9.8-4.2 c0.94,0,1.88,0.1,2.8,0.3c0.2,0,0.2,0.2,0.3,0.2C42.8,61.65,42.81,61.85,42.7,62z" fill="#FAFAFA"/>
    <polyline points="23.4,35.6 95,102.1 97,100.2 30.6,33.4 " opacity="0.8" fill="#231F20" enable-background="new "/>
    <path d="M103.9,96.8L25.3,18.9L18.2,26l78.6,77.9" fill="#F44336"/>
    <path d="M45,10.9c1.7-0.4,4.2-1.6,5.9-1.1c1.09,0.3,1.75,1.4,1.5,2.5c-0.37,0.81-1.12,1.37-2,1.5 c-3.9,0.97-7.68,2.35-11.3,4.1c-7.18,3.78-13.38,9.19-18.1,15.8c-1.9,2.7-3.4,5.5-5.8,7.8c-0.21,0.23-0.49,0.37-0.8,0.4 c-0.17,0.03-0.35-0.01-0.5-0.1c-1.2-0.5-1.4-1.1-1.2-2.3c0.18-1.01,0.52-1.99,1-2.9c1.01-1.76,2.11-3.46,3.3-5.1 c1.89-2.91,4.11-5.59,6.6-8C30.4,17.2,39.2,12.4,45,10.9z" fill="#FF8A80"/>
    <polygon points="32.4,25.3 30.4,27.3 101.5,98.4 103.3,96.2 " fill="#CC3333"/>
  </g>
</svg>

<svg viewBox="0 0 128 128" xmlns="http://www.w3.org/2000/svg">
  <defs/>
  <path d="M64,4 C30.86,4 4,30.86 4,64 C4,97.14 30.86,124 64,124 C97.14,124 124,97.14 124,64 C124,30.86 97.14,4 64,4 Z M114,64 C114.04,75.53 110.04,86.71 102.7,95.6 L32.4,25.3 C41.29,17.96 52.47,13.96 64,14 C91.61,14 114,36.39 114,64 Z M14,64 C13.96,52.47 17.96,41.29 25.3,32.4 L95.6,102.7 C86.71,110.04 75.53,114.04 64,114 C36.39,114 14,91.61 14,64 Z" fill="#CC3333"/>
  <path d="M116.2,63.1 A56.1 56.1 0 1 1 4,63.1 A56.1 56.1 0 1 1 116.2,63.1 Z" fill="#F44336"/>
  <path d="M95.6,102.7 C86.71,110.04 75.53,114.04 64,114 C36.39,114 14,91.61 14,64 C13.96,52.47 17.96,41.29 25.3,32.4 L32.4,25.3 C41.29,17.96 52.47,13.96 64,14 C91.61,14 114,36.39 114,64 C114.04,75.53 110.04,86.71 102.7,95.6" fill="#FFFFFF"/>
  <path d="M95.6,102.7 C86.71,110.04 75.53,114.04 64,114 C36.39,114 14,91.61 14,64 C13.96,52.47 17.96,41.29 25.3,32.4 L32.4,25.3 C41.29,17.96 52.47,13.96 64,14 C91.61,14 114,36.39 114,64 C114.04,75.53 110.04,86.71 102.7,95.6" fill="#231F20"/>
  <path d="M96.4,103.2 C75.91,119.94 45.74,116.9 29,96.41 C14.59,78.78 14.59,53.44 29,35.8 L35.8,29 C44.33,21.97 55.05,18.15 66.1,18.2 C92.55,18.2 114,39.64 114,66.1 C114,77.14 110.18,87.85 103.2,96.4" fill="#414042"/>
  <path d="M101.3,63.1 C98.02,59.48 93.39,57.38 88.5,57.3 L86,48.4 C85.77,47.59 85.04,47.02 84.2,47 L80.7,47 C80.5,47 80.4,46.9 80.4,46.8 C80.4,46.7 80.3,46.6 80.4,46.4 L81.9,43.1 C82,43 82.1,42.9 82.2,42.9 C82.81,42.78 83.38,42.54 83.9,42.2 L88.8,38.9 L88.9,38.9 C89.53,38.18 89.68,37.17 89.3,36.3 C88.93,35.42 88.05,34.87 87.1,34.9 L73.4,34.9 C72.37,34.87 71.44,35.52 71.1,36.5 C70.79,37.48 71.11,38.55 71.9,39.2 L72.1,39.2 L77.8,41.5 C77.91,41.51 77.99,41.59 78,41.7 L78,42 L75.9,46.7 C75.8,46.9 75.7,46.9 75.5,46.9 L57.9,46.9 C57.9,46.9 51.4,46.6 51.4,41.3 C51.4,36 60.7,35.7 60.8,35.7 C61.86,35.69 62.71,34.82 62.7,33.76 C62.7,33.74 62.7,33.72 62.7,33.7 C62.73,32.68 61.94,31.83 60.92,31.8 C60.88,31.8 60.84,31.8 60.8,31.8 L60.8,31.8 C58.7,31.9 56.61,32.27 54.6,32.9 C48.9,34.9 47.7,38.5 47.7,41.2 C47.67,43.06 48.31,44.87 49.5,46.3 L44.7,57.4 C44.6,57.6 44.5,57.6 44.3,57.6 L44.2,57.6 C42.77,57.2 41.29,57 39.8,57 C38.96,57.02 38.13,57.08 37.3,57.2 C29.36,58.37 23.25,64.81 22.5,72.8 C22.03,77.67 23.67,82.51 27,86.1 C30.29,89.7 34.93,91.76 39.8,91.8 C40.4,91.82 41,91.78 41.6,91.7 C51.14,90.68 58.05,82.12 57.03,72.57 C56.44,67.07 53.27,62.18 48.5,59.4 C48.31,59.33 48.22,59.11 48.29,58.92 C48.29,58.91 48.3,58.91 48.3,58.9 L52.5,49.1 C52.6,48.9 52.7,48.8 52.9,48.8 L53.1,48.8 C54,49.2 55.3,49.7 56.2,50 C56.3,50 56.4,50.1 56.4,50.3 L63.7,75.5 C63.83,75.82 64,76.12 64.2,76.4 C64.3,76.5 64.4,76.6 64.5,76.6 C64.56,76.6 64.6,76.64 64.6,76.7 C64.68,76.78 64.79,76.81 64.9,76.8 L71.2,76.8 C72.38,85.4 79.72,91.8 88.4,91.8 C88.87,91.82 89.34,91.78 89.8,91.7 C99.26,91 106.35,82.76 105.65,73.31 C105.37,69.52 103.84,65.93 101.3,63.1 Z M75.2,77.2 C75.3,77.1 75.4,77 75.5,77 L91.6,77 C92.7,76.93 93.53,75.97 93.46,74.87 C93.45,74.75 93.43,74.62 93.4,74.5 L89.7,61.7 C89.6,61.5 89.7,61.4 89.8,61.3 C89.9,61.2 90,61.1 90.1,61.1 L90.2,61.1 C97.59,62.16 102.73,69.01 101.67,76.4 C100.73,82.94 95.21,87.85 88.6,88 L88.3,88 C81.98,87.94 76.52,83.56 75.1,77.4 C75.11,77.32 75.14,77.25 75.2,77.2 Z M88.8,73 C88.7,73.1 88.6,73.2 88.5,73.2 L75.4,73.2 C75.29,73.2 75.18,73.17 75.1,73.1 C75.03,72.98 75,72.84 75,72.7 C75.83,67.18 79.96,62.74 85.4,61.5 L85.5,61.5 C85.7,61.5 85.8,61.6 85.9,61.8 L89,72.7 C89,72.8 88.9,72.9 88.8,73 Z M84.2,57.8 C77.08,59.49 71.82,65.52 71.1,72.8 C71.09,73.01 70.91,73.19 70.7,73.2 C70.17,73.22 69.67,72.95 69.4,72.5 C69.12,72.08 69.08,71.55 69.3,71.1 L78.2,51.1 C78.3,50.9 78.4,50.9 78.6,50.9 L82.4,50.9 C82.6,50.9 82.7,51 82.8,51.2 L84.6,57.3 L84.6,57.6 C84.4,57.7 84.3,57.8 84.2,57.8 Z M73.8,51.4 L66.2,68.5 C66.12,68.64 65.96,68.72 65.8,68.7 C65.6,68.7 65.5,68.6 65.4,68.4 L60.4,51.3 C60.39,51.16 60.42,51.02 60.5,50.9 C60.6,50.8 60.7,50.7 60.8,50.7 L73.3,50.7 C73.5,50.7 73.6,50.8 73.6,50.9 C73.6,51 73.9,51.2 73.8,51.4 Z M42.7,62 L37.4,74.4 C36.98,75.34 37.4,76.45 38.34,76.87 C38.36,76.88 38.38,76.89 38.4,76.9 C38.66,76.98 38.93,77.01 39.2,77 C39.98,76.99 40.69,76.52 41,75.8 L46.3,63.4 C46.4,63.2 46.5,63.1 46.7,63.1 C46.9,63.1 46.9,63.1 46.9,63.2 C53.2,67.17 55.09,75.51 51.11,81.81 C48.64,85.73 44.33,88.1 39.7,88.1 L39,88.1 C32.05,87.7 26.5,82.15 26.1,75.2 C25.88,71.5 27.23,67.87 29.8,65.2 C32.36,62.52 35.9,61 39.6,61 C40.54,61 41.48,61.1 42.4,61.3 C42.6,61.3 42.6,61.5 42.7,61.5 C42.8,61.65 42.81,61.85 42.7,62 Z" fill="#FAFAFA"/>
  <path d="M23.4,35.6 L95,102.1 L97,100.2 L30.6,33.4" fill="#231F20" opacity="0.8"/>
  <path d="M103.9,96.8 L25.3,18.9 L18.2,26 L96.8,103.9" fill="#F44336"/>
  <path d="M45,10.9 C46.7,10.5 49.2,9.3 50.9,9.8 C51.99,10.1 52.65,11.2 52.4,12.3 C52.03,13.11 51.28,13.67 50.4,13.8 C46.5,14.77 42.72,16.15 39.1,17.9 C31.92,21.68 25.72,27.09 21,33.7 C19.1,36.4 17.6,39.2 15.2,41.5 C14.99,41.73 14.71,41.87 14.4,41.9 C14.23,41.93 14.05,41.89 13.9,41.8 C12.7,41.3 12.5,40.7 12.7,39.5 C12.88,38.49 13.22,37.51 13.7,36.6 C14.71,34.84 15.81,33.14 17,31.5 C18.89,28.59 21.11,25.91 23.6,23.5 C30.4,17.2 39.2,12.4 45,10.9 Z" fill="#FF8A80"/>
  <path d="M32.4,25.3 L30.4,27.3 L101.5,98.4 L103.3,96.2 Z" fill="#CC3333"/>
</svg>
